X: 1
T:BWV Anh. 131
C:Johann Sebastian Bach?
B:"Notenbuch der Anna Magdalena Bach"
Z:Transcribed by Frank Nordberg - http://www.musicaviva.com

V:1 Program 1 6 %Harpsichord
V:2 Program 1 6 bass %Harpsichord
m: Te2 = f/e/4f/4 e/4(3f/4e/4d/4e/4
M:C
L:1/4
Q:1/4=144

K:F
V:1
c|f2 Te2|fABc|A2Gc|
V:2
z|zF,CC,|A,F,G,E,|F,F,,E,z|

V:1
A2d2|=BA/G/gf|ed/c/dc/=B/|c3:|
V:2
F,2D,2|G,2E,F,|G,2G,,2|C,G,,C,,:|

V:1
|:E/F/|G3A|B3c|AG/F/dB/A/|G3c|
V:2
|:z|zC,C,,2|zC,C,,2|F,2B,,B,,|C,G,,C,,A,,|

V:1
d2e2|(fe/d/) cB|A2G2|F3:|
V:2
B,,2G,,2|A,,2zB,,|C,2C,,2|F,,C,F,:|

